X: 6
T: The Rocky Road To Dublin
R: slip jig
M: 9/8
L: 1/8
K: Ddor
AAA G2E DDD | A,2D D2E F2G | AAA G2E D2F | E2C C2D EFG :|
A2d d2B cBc | A2d d3 DEG | A2d d2B cBA | G2E C2D EFG |
A2d d2B cBc | A2d d2B c3 | A2d d2B cBA | G2E C2D EFG |
A2A G2E D3 | A,2D DDE F2G | AAA G2E D2F | E2C C2D EFG | AAA G2E D3 ||


Tune 593	Setting 25897

